icons/desktop/16/svg/closed-tabs-16.svg

<svg width="20" height="20" viewBox="0 0 20 20" fill="none" xmlns="http://www.w3.org/2000/svg">
<path d="M17.7197 12.2198C18.0126 11.9271 18.4874 11.9271 18.7803 12.2198C19.0731 12.5127 19.073 12.9875 18.7803 13.2804L17.5605 14.5001L18.7803 15.7198C19.0731 16.0127 19.073 16.4875 18.7803 16.7804C18.4874 17.0733 18.0126 17.0733 17.7197 16.7804L16.5 15.5606L15.2803 16.7804C14.9874 17.0733 14.5126 17.0733 14.2197 16.7804C13.927 16.4875 13.9269 16.0127 14.2197 15.7198L15.4395 14.5001L14.2197 13.2804C13.927 12.9875 13.9269 12.5127 14.2197 12.2198C14.5126 11.9271 14.9874 11.9271 15.2803 12.2198L16.5 13.4396L17.7197 12.2198Z" fill="black"/>
<path d="M3.4541 3.28819C7.10407 2.9062 10.8605 2.90526 14.5225 3.28526C15.9352 3.43245 17 4.61063 17 6.02549V10.0001H15.5V7.0001H8C7.448 7.0001 7 6.5521 7 6.0001V4.53917C5.8649 4.58282 4.73068 4.66325 3.61035 4.78038C2.97735 4.84538 2.5 5.38049 2.5 6.02549V11.9747C2.50019 12.6185 2.98603 13.1557 3.63184 13.2228C6.32653 13.5017 9.07238 13.5659 11.7881 13.422V14.9259C10.8581 14.9739 9.92702 14.9991 8.99902 14.9991C7.16102 14.9991 5.30256 14.903 3.47656 14.714C2.06393 14.5668 0.999214 13.3894 0.999023 11.9747V6.02549C0.999023 4.61049 2.0551 3.43419 3.4541 3.28819Z" fill="black"/>
</svg>

<!-- This Source Code Form is subject to the terms of the Mozilla Public
   - License, v. 2.0. If a copy of the MPL was not distributed with this
   - file, You can obtain one at http://mozilla.org/MPL/2.0/. -->
<svg xmlns="http://www.w3.org/2000/svg" width="20" height="20" fill="context-fill" fill-opacity="context-fill-opacity" viewBox="0 0 20 20">
    <path d="M17.72 12.22a.75.75 0 0 1 1.06 1.06l-1.22 1.22 1.22 1.22a.75.75 0 0 1-1.06 1.06l-1.22-1.22-1.22 1.22a.75.75 0 1 1-1.06-1.06l1.22-1.22-1.22-1.22a.75.75 0 0 1 1.06-1.06l1.22 1.22z" />
    <path d="M3.454 3.288a53.7 53.7 0 0 1 11.069-.003A2.753 2.753 0 0 1 17 6.025V10h-1.5V7H8a1 1 0 0 1-1-1V4.54c-1.135.043-2.27.123-3.39.24-.633.065-1.11.6-1.11 1.245v5.95c0 .643.486 1.18 1.132 1.248a52.5 52.5 0 0 0 8.156.199v1.504q-1.396.073-2.789.073c-1.838 0-3.696-.096-5.522-.285a2.75 2.75 0 0 1-2.478-2.74V6.026a2.74 2.74 0 0 1 2.455-2.737" />
</svg>
